X:105
M:4/4
L:1/4
K:C
G c | A A G F | E2 G c | A A G =F | E2 G c | A A A d/=c/ | B/A/ G G c | A A A d/_c/ | B/A/ G c G | A G F E | D2 !sintro!G c | A d c B | c2 !eintro!|]
